X:120
M:C|
L:1/8
K:E_
E|B,EG,E B,G,G,E|B,G,B,E G2 GB|B,EG,E B,EGB|AGFE (F2F)||
c|B<G e2 BGGc|BGBc (Be)dc|BG e2 BGGB|(AG)FE F2 FG|

